X: 33798
T: Ray's Classic
R: polka
M: 2/4
K: Gmajor
|:G>A GD|EG D>G|EA AG/A/|BA AB|
G>A GD|EG D>G|EA AG/A/|1 BG GB/A/:|2 BG GB||
|:d>e dG|e2 e2|Ae Ae|f2 f2|
Bf Bf|g2 g>e|dB AG/A/|1 BG GB/c/:|2 BG G2||

